build/category/TesterHTSolid.svg

<svg xmlns="http://www.w3.org/2000/svg" fill="none" viewBox="0 0 24 24" focusable="false"><path d="M0 0H24V24H0z"/><path fill="#74767B" fill-rule="evenodd" d="M19.5139 13.4283C19.7283 13.5369 20 13.39 20 13.1497L20 7C20 5.34315 18.6569 4 17 4L7 4C5.34315 4 4 5.34315 4 7L4 17C4 18.6569 5.34315 20 7 20L13.1497 20C13.39 20 13.5369 19.7283 13.4283 19.5139C13.1177 18.9002 12.9426 18.2062 12.9426 17.4713C12.9426 16.0097 13.6351 14.7097 14.7099 13.8817L14.7099 12.3131L9.33929 12.3131L9.33929 16.4081C9.33929 16.7671 9.04828 17.0581 8.68929 17.0581C8.33031 17.0581 8.03929 16.7671 8.03929 16.4081L8.03929 7.61986C8.03929 7.26087 8.33031 6.96986 8.68929 6.96986C9.04828 6.96986 9.33929 7.26087 9.33929 7.61986L9.33929 11.0131L14.7099 11.0131L14.7099 7.61986C14.7099 7.26087 15.0009 6.96986 15.3599 6.96986C15.7188 6.96986 16.0099 7.26087 16.0099 7.61986L16.0099 13.1836C16.4684 13.0274 16.9599 12.9426 17.4713 12.9426C18.2062 12.9426 18.9002 13.1177 19.5139 13.4283ZM20.1674 19.2476L21.8043 20.8845C22.0582 21.1383 22.0582 21.5499 21.8044 21.8037C21.5505 22.0576 21.139 22.0576 20.8851 21.8037L19.2494 20.168C18.7393 20.5058 18.1277 20.7024 17.4701 20.7024C15.6878 20.7024 14.243 19.2576 14.243 17.4753C14.243 15.693 15.6878 14.2481 17.4701 14.2481C19.2524 14.2481 20.6973 15.693 20.6973 17.4753C20.6973 18.1299 20.5024 18.7389 20.1674 19.2476ZM15.543 17.4753C15.543 18.5396 16.4058 19.4024 17.4701 19.4024C18.5344 19.4024 19.3973 18.5396 19.3973 17.4753C19.3973 16.4109 18.5344 15.5481 17.4701 15.5481C16.4058 15.5481 15.543 16.4109 15.543 17.4753Z"/></svg>

<svg xmlns="http://www.w3.org/2000/svg" fill="none" viewBox="0 0 24 24" focusable="false"><path fill="#74767B" fill-rule="evenodd" d="M19.51 13.42c.21.11.49-.03.49-.28V7c0-1.66-1.35-3-3-3H7C5.34 4 4 5.34 4 7v10c0 1.65 1.34 3 3 3h6.14c.24 0 .39-.28.28-.49-.31-.61-.48-1.31-.48-2.04 0-1.47.69-2.77 1.77-3.59v-1.57H9.33v4.09c0 .36-.29.65-.65.65-.35 0-.65-.29-.65-.65V7.61c0-.35.3-.65.65-.65.36 0 .65.3.65.65v3.4h5.38v-3.4c0-.35.29-.65.64-.65.36 0 .65.3.65.65v5.57q.69-.24 1.47-.24c.73 0 1.43.17 2.04.48m2.29 7.46-1.64-1.64c.34-.51.53-1.12.53-1.77 0-1.78-1.44-3.23-3.22-3.23-1.79 0-3.23 1.45-3.23 3.23s1.44 3.23 3.23 3.23c.65 0 1.26-.2 1.77-.54l1.64 1.64c.25.25.67.25.92 0 .25-.26.25-.67 0-.92m-4.33-1.48a1.931 1.931 0 0 1 0-3.86c1.06 0 1.92.87 1.92 1.93s-.86 1.93-1.92 1.93"/></svg>
